icons/svg/subway/subway_montreal.svg

<?xml version="1.0" encoding="UTF-8" standalone="no"?>
<svg
   xmlns:dc="http://purl.org/dc/elements/1.1/"
   xmlns:cc="http://creativecommons.org/ns#"
   xmlns:rdf="http://www.w3.org/1999/02/22-rdf-syntax-ns#"
   xmlns:svg="http://www.w3.org/2000/svg"
   xmlns="http://www.w3.org/2000/svg"
   xmlns:sodipodi="http://sodipodi.sourceforge.net/DTD/sodipodi-0.dtd"
   xmlns:inkscape="http://www.inkscape.org/namespaces/inkscape"
   width="16"
   height="16"
   id="svg2"
   version="1.1"
   inkscape:version="0.91 r"
   sodipodi:docname="subway_montreal.svg">
  <defs
     id="defs13">
    <linearGradient
       gradientTransform="matrix(0.08596979,0,0,0.08596979,0.67480439,1.9432845)"
       x1="87.101639"
       y1="121.69753"
       x2="87.260849"
       y2="1.2385538"
       id="l1"
       gradientUnits="userSpaceOnUse">
      <stop
         style="stop-color:#e92203;stop-opacity:1"
         offset="0"
         id="stop5" />
      <stop
         style="stop-color:#ff0000;stop-opacity:0.64628822"
         offset="1"
         id="stop7" />
    </linearGradient>
    <linearGradient
       gradientTransform="matrix(0.08400469,0,0,0.08400469,0.8422306,2.0814238)"
       x1="87.101639"
       y1="121.69753"
       x2="87.260849"
       y2="1.2385538"
       id="l1-2"
       gradientUnits="userSpaceOnUse">
      <stop
         style="stop-color:#e92203;stop-opacity:1"
         offset="0"
         id="stop5-8" />
      <stop
         style="stop-color:#ff0000;stop-opacity:0.64628822"
         offset="1"
         id="stop7-4" />
    </linearGradient>
  </defs>
  <sodipodi:namedview
     pagecolor="#ffffff"
     bordercolor="#666666"
     borderopacity="1"
     objecttolerance="10"
     gridtolerance="10"
     guidetolerance="10"
     inkscape:pageopacity="0"
     inkscape:pageshadow="2"
     inkscape:window-width="1920"
     inkscape:window-height="1004"
     id="namedview11"
     showgrid="true"
     inkscape:zoom="32"
     inkscape:cx="10.611847"
     inkscape:cy="9.5982254"
     inkscape:window-x="1680"
     inkscape:window-y="0"
     inkscape:window-maximized="1"
     inkscape:current-layer="svg2"
     showguides="false"
     inkscape:snap-global="false">
    <sodipodi:guide
       position="0,0"
       orientation="0,580"
       id="guide2989" />
    <sodipodi:guide
       position="580,0"
       orientation="-580,0"
       id="guide2991" />
    <sodipodi:guide
       position="580,580"
       orientation="0,-580"
       id="guide2993" />
    <sodipodi:guide
       position="0,580"
       orientation="580,0"
       id="guide2995" />
    <sodipodi:guide
       position="0,0"
       orientation="0,580"
       id="guide2997" />
    <sodipodi:guide
       position="580,0"
       orientation="-580,0"
       id="guide2999" />
    <sodipodi:guide
       position="580,580"
       orientation="0,-580"
       id="guide3001" />
    <sodipodi:guide
       position="0,580"
       orientation="580,0"
       id="guide3003" />
    <inkscape:grid
       type="xygrid"
       id="grid3013"
       empspacing="5"
       visible="true"
       enabled="true"
       snapvisiblegridlinesonly="true" />
  </sodipodi:namedview>
  <metadata
     id="metadata2975">image/svg+xmlen<rdf:RDF>
  <cc:Work
     rdf:about="">
    <dc:format>image/svg+xml</dc:format>
    <dc:type
       rdf:resource="http://purl.org/dc/dcmitype/StillImage" />
    <dc:title />
  </cc:Work>
</rdf:RDF>
</metadata>
  <path
     sodipodi:type="inkscape:offset"
     inkscape:radius="0.5376454"
     inkscape:original="M 4.4570312 4.4570312 L 4.4570312 11.542969 L 11.542969 11.542969 L 11.542969 4.4570312 L 4.4570312 4.4570312 z "
     style="color:#000000;clip-rule:nonzero;display:inline;overflow:visible;visibility:visible;opacity:0.68438535;isolation:auto;mix-blend-mode:normal;color-interpolation:sRGB;color-interpolation-filters:linearRGB;solid-color:#000000;solid-opacity:1;fill:#fefefe;fill-opacity:1;fill-rule:nonzero;stroke-width:1;stroke-linecap:butt;stroke-linejoin:miter;stroke-miterlimit:4;stroke-dasharray:none;stroke-dashoffset:0;stroke-opacity:1;color-rendering:auto;image-rendering:auto;shape-rendering:auto;text-rendering:auto;enable-background:accumulate"
     id="path4200"
     d="M 4.4570312,3.9199219 A 0.53769916,0.53769916 0 0 0 3.9199219,4.4570312 l 0,7.0859378 a 0.53769916,0.53769916 0 0 0 0.5371093,0.537109 l 7.0859378,0 a 0.53769916,0.53769916 0 0 0 0.537109,-0.537109 l 0,-7.0859378 A 0.53769916,0.53769916 0 0 0 11.542969,3.9199219 l -7.0859378,0 z" />
  <g
     transform="matrix(0.03470947,0,0,0.03470947,6.4322793,6.3166234)"
     id="g11" />
  <g
     transform="matrix(0.03470947,0,0,0.03470947,6.4322793,6.3166234)"
     id="g13" />
  <g
     transform="matrix(0.03470947,0,0,0.03470947,6.4322793,6.3166234)"
     id="g15" />
  <g
     transform="matrix(0.03470947,0,0,0.03470947,6.4322793,6.3166234)"
     id="g17" />
  <g
     transform="matrix(0.03470947,0,0,0.03470947,6.4322793,6.3166234)"
     id="g19" />
  <g
     transform="matrix(0.03470947,0,0,0.03470947,6.4322793,6.3166234)"
     id="g21" />
  <g
     transform="matrix(0.03470947,0,0,0.03470947,6.4322793,6.3166234)"
     id="g23" />
  <g
     transform="matrix(0.03470947,0,0,0.03470947,6.4322793,6.3166234)"
     id="g25" />
  <g
     transform="matrix(0.03470947,0,0,0.03470947,6.4322793,6.3166234)"
     id="g27" />
  <g
     transform="matrix(0.03470947,0,0,0.03470947,6.4322793,6.3166234)"
     id="g29" />
  <g
     transform="matrix(0.03470947,0,0,0.03470947,6.4322793,6.3166234)"
     id="g31" />
  <g
     transform="matrix(0.03470947,0,0,0.03470947,6.4322793,6.3166234)"
     id="g33" />
  <g
     transform="matrix(0.03470947,0,0,0.03470947,6.4322793,6.3166234)"
     id="g35" />
  <g
     transform="matrix(0.03470947,0,0,0.03470947,6.4322793,6.3166234)"
     id="g37" />
  <g
     transform="matrix(0.03470947,0,0,0.03470947,6.4322793,6.3166234)"
     id="g39" />
  <path
     inkscape:connector-curvature="0"
     d="m 4.4565875,4.4565875 7.0868245,0 0,7.0868245 -7.0868245,0"
     id="path4"
     style="color:#000000;clip-rule:nonzero;display:inline;overflow:visible;visibility:visible;opacity:1;isolation:auto;mix-blend-mode:normal;color-interpolation:sRGB;color-interpolation-filters:linearRGB;solid-color:#000000;solid-opacity:1;fill:#1c63b7;fill-opacity:1;fill-rule:nonzero;stroke-width:1;stroke-linecap:butt;stroke-linejoin:miter;stroke-miterlimit:4;stroke-dasharray:none;stroke-dashoffset:0;stroke-opacity:1;color-rendering:auto;image-rendering:auto;shape-rendering:auto;text-rendering:auto;enable-background:accumulate" />
  <path
     style="color:#000000;font-style:normal;font-variant:normal;font-weight:normal;font-stretch:normal;font-size:medium;line-height:normal;font-family:sans-serif;text-indent:0;text-align:start;text-decoration:none;text-decoration-line:none;text-decoration-style:solid;text-decoration-color:#000000;letter-spacing:normal;word-spacing:normal;text-transform:none;direction:ltr;block-progression:tb;writing-mode:lr-tb;baseline-shift:baseline;text-anchor:start;white-space:normal;clip-rule:nonzero;display:inline;overflow:visible;visibility:visible;opacity:1;isolation:auto;mix-blend-mode:normal;color-interpolation:sRGB;color-interpolation-filters:linearRGB;solid-color:#000000;solid-opacity:1;fill:#fefefe;fill-opacity:1;fill-rule:nonzero;stroke:none;stroke-width:1.78421509;stroke-linecap:butt;stroke-linejoin:miter;stroke-miterlimit:4;stroke-dasharray:none;stroke-dashoffset:0;stroke-opacity:1;color-rendering:auto;image-rendering:auto;shape-rendering:auto;text-rendering:auto;enable-background:accumulate"
     d="M 7.9980419,5.0003381 C 6.3615561,5.0078439 5.0312575,6.34678 5.035107,7.9826156 c 0.00385,1.6357595 1.3411026,2.9664514 2.9770022,2.9664514 1.6358997,0 2.9722728,-1.3306918 2.9761228,-2.9664514 C 10.992142,6.34678 9.6617833,5.0078451 8.0252973,5.0003381 l -8.777e-4,0 -0.025498,0 -8.777e-4,0 z m 0.403557,0.8800881 c 1.0120503,0.188906 1.7855481,1.0331998 1.7830361,2.1004308 -0.0028,1.2020955 -0.9693295,2.165492 -2.1725258,2.165492 -1.2031965,0 -2.170576,-0.9633965 -2.1734049,-2.165492 -0.0025,-1.0587672 0.759292,-1.8968381 1.7592973,-2.095155 l 0,2.6323517 L 6.4884398,7.4093706 5.9204707,7.9764611 7.9998003,10.05579 10.07913,7.9764611 9.511161,7.4093706 8.4015989,8.5180537 l 0,-2.6376275 z"
     id="path6"
     inkscape:connector-curvature="0" />
</svg>

<svg width="16" height="16" viewBox="0 0 16 16" fill="none" xmlns="http://www.w3.org/2000/svg">
<path opacity="0.684385" d="M4.45703 3.91992C4.31463 3.92008 4.1781 3.97672 4.07741 4.07741C3.97672 4.1781 3.92008 4.31463 3.91992 4.45703V11.543C3.92008 11.6854 3.97672 11.8219 4.07741 11.9226C4.1781 12.0233 4.31463 12.0799 4.45703 12.0801H11.543C11.6854 12.0799 11.8219 12.0233 11.9226 11.9226C12.0233 11.8219 12.0799 11.6854 12.0801 11.543V4.45703C12.0799 4.31463 12.0233 4.1781 11.9226 4.07741C11.8219 3.97672 11.6854 3.92008 11.543 3.91992H4.45703V3.91992Z" fill="#FEFEFE"/>
<path d="M4.4566 4.45657H11.5434V11.5434H4.4566" fill="#1C63B7"/>
<path d="M7.99804 5.00034C6.36155 5.00784 5.03125 6.34678 5.0351 7.98261C5.03895 9.61837 6.37621 10.9491 8.01211 10.9491C9.648 10.9491 10.9844 9.61837 10.9882 7.98261C10.9921 6.34678 9.66178 5.00784 8.02529 5.00034H8.02442H7.99892H7.99804H7.99804ZM8.4016 5.88042C9.41365 6.06933 10.1871 6.91362 10.1846 7.98085C10.1818 9.18295 9.2153 10.1463 8.01211 10.1463C6.80891 10.1463 5.84153 9.18295 5.8387 7.98085C5.8362 6.92209 6.59799 6.08402 7.598 5.8857V8.51805L6.48844 7.40937L5.92047 7.97646L7.9998 10.0558L10.0791 7.97646L9.51116 7.40937L8.4016 8.51805V5.88042Z" fill="#FEFEFE"/>
</svg>
